!!!ONB: MCCC : IJH0466_03 : Extracted Monophonic Melody
!!!COM: Haydn, Joseph
!!!OPR: String Quartet in G major
!!!OMV: 3
!!!SCT: Hob.III:81 ; Op.77 No.1
!!!ODT: 1799///
**kern
*thru
*k[f#]
*G:
*clefF
*M3/4
8G
8A
8B
8c
8d
8B
=1
4G
2g
=2
4f#
2dd
=3
4dd
4gg
4bb
=4
8ff#
8gg
8aa
8bb
8ccc
8aa
=5
4bb
2eee
=6
8ccc#
8ddd
8eee
8fff#
8ggg
8eee
=7
4fff#
2aaa
=8
4a
2aaa
=9
4d
2aaa
=10
4a
2aaa
=11
4d
2dd
=12
8G
8A
8B
8c
8d
8B
=13
4G
2g
=14
4f#
2dd
=15
4dd
4gg
4bb
=16
8ff#
8gg
8aa
8bb
8ccc
8aa
=17
4bb
2eee
=18
8ccc#
8ddd
8eee
8fff#
8ggg
8eee
=19
4fff#
2aaa
=20
4a
2aaa
=21
4d
2aaa
=22
4a
2aaa
=23
4d
2dd
=24
8d
8e
8f#
8g
8a
8f#
=25
4d
2dd
=26
4f
2ff
=27
4ee
2ddd
=28
2.a
=29
2.a[
=30
4a]
4a
4g#
=31
8a
8g#
8a
8b
8cc
8b
=32
8cc
8dd
8ee
8ff
8gg
8ee
=33
4dd
2aa
=34
8dd
8ee
8ff
8gg
8aa
8ff
=35
4ee
2ccc
=36
4dd
4ccc
4bb
=37
4dd
4ccc
4bb
=38
4aa
4.aa
8gg
=39
4ff#
4.dd
8dd#
=40
8ee
8dd
8cc
8b
8a
8cc
=41
8dd
8cc
8b
8a
8g
8g#
=42
8a
8b
8cc
8dd
8cc
8f#
=43
8g
8a
8b
8cc
8b
8dd
=44
8gg
8ff#
8ee
8dd
8cc#
8b
=45
8a
8g
8f#
8e
8d
8c#
=46
8d
8e
8f#
8g
8a
8f#
=47
8g
8f#
8e
8d
8c#
8e
=48
8d
8e
8f#
8g
8a
8f#
=49
8g
8f#
8e
8d
8c#
8e
=50
8d
8e
8f#
8g
8a
8f#
=51
8d
8e
8f#
8g
8a
8f#
=52
8d
8a
8cc
8b
8a
8g
=53
8f#
8e
8d
8c
8B
8A
=54
8G
8A
8B
8c
8d
8B
=55
4G
2g
=56
4f#
2dd
=57
4dd
4gg
4bb
=58
8ff#
8gg
8aa
8bb
8ccc
8aa
=59
4bb
2ddd
=60
8ccc
8bb
8aa
8gg
8ff#
8aa
=61
4gg
2bb
=62
8aa
8gg
8ff#
8gg
8ff
8dd
=63
8ff
8ee
8dd#
8ee
8gg
8ee
=64
8dd
8cc
8ee
8b
8cc
8a
=65
4g
2dd
=66
4f#
2dd[
=67
4dd]
4g
4gg[
=68
4gg]
4g
4gg[
=69
4gg]
4g
4gg[
=70
4gg]
4ee
8dd
8cc
=71
8b
8cc
8dd
8ee
8ff#
8gg
=72
8aa
8bb
8ccc
8ddd
8eee
8fff#
=73
4ggg
2ggg
=74
4dddd
2dddd
=75
4dddd
2dddd
=76
4dddd
2dddd
=77
4G
4G
4r
=78
4a
4a
4r
=79
4b
4b
4r
=80
2.f#
=81
*E-:
4g
2r
=82
2.f#
=83
2.g[
=84
4g]
4f
4e-
=85
4d
4e-
4f
=86
4B-
4c
4d
=87
4e-
4r
4g
=88
4b-
4r
4ee-
=89
4gg
4r
4bb-
=90
4gg
4r
4bb-
=91
4gg
4r
4bb-
=92
4gg
4r
4B-
=93
2.g[
=94
4g]
4f
4e-
=95
4d
4e-
4f
=96
4B-
4c
4d
=97
4e-
4r
4g
=98
4b-
4r
4ee-
=99
4gg
4r
4bb-
=100
4gg
4r
4bb-
=101
4gg
4r
4bb-
=102
4gg
4r
4ccc
=103
2gg
4ee-
=104
4cc
4g
4e-
=105
4d
4e-
4f
=106
4B
4c
4d
=107
2c
4e-
=108
2g
4cc
=109
4dd
4ee-
4ff
=110
4b
4cc
4dd
=111
2cc
4ee-
=112
2gg
4gg
=113
4ff#
4gg
4aa
=114
4dd
4ee
4ff#
=115
2gg
4aa
=116
2bb-
4bb-
=117
4aa
4bb-
4ccc
=118
4dd
4ee
4ff#
=119
2.gg[
=120
2gg]
4ff
=121
4ee
4ff
4gg
=122
4cc
4dd
4ee
=123
2.ff[
=124
2ff]
4ee-
=125
4dd
4ee-
4ff
=126
4B-
8c
8d
8e-
8f
=127
2.g[
=128
4g]
4f
4e-
=129
4d
4e-
4f
=130
4B-
4c
4d
=131
4e-
4r
4g
=132
4b-
4r
4ee-
=133
4gg
4r
4bb-
=134
4gg
4r
4bb-
=135
4gg
4r
4bb-
=136
4gg
4r
4ccc
=137
2gg
4ee-
=138
4cc
4g
4e-
=139
4d
4e-
4f
=140
4B
4c
4d
=141
2c
4e-
=142
2g
4cc
=143
4dd
4ee-
4ff
=144
4b
4cc
4dd
=145
2cc
4ee-
=146
2gg
4gg
=147
4ff#
4gg
4aa
=148
4dd
4ee
4ff#
=149
2gg
4aa
=150
2bb-
4bb-
=151
4aa
4bb-
4ccc
=152
4dd
4ee
4ff#
=153
2.gg[
=154
2gg]
4ff
=155
4ee
4ff
4gg
=156
4cc
4dd
4ee
=157
2.ff[
=158
2ff]
4ee-
=159
4dd
4ee-
4ff
=160
4B-
8c
8d
8e-
8f
=161
2.g[
=162
4g]
4f
4e-
=163
4d
4e-
4f
=164
4B-
4c
4d
=165
4e-
4r
4g
=166
4b-
4r
4ee-
=167
4gg
4r
4bb-
=168
4gg
4r
4bb-
=169
4gg
4r
4bb-
=170
4gg
4r
4ccc
=171
4gg
4r
4ccc
=172
4gg
4r
4gg
=173
2ccc#
4gg
=174
2ccc#
4gg
=175
2ddd
4dd
=176
2ddd
4dd
=177
2ddd
4d
=178
2dd
4d
=179
4dd
2r
=180
4dd
2r
=181
4dd
2r
=182
2.r
==
*-
